!!!COM: Schiørring, Niels
!!!CDT: 1743-1798
!!!OPR@@DA: Choral-Bog
!!!ONM: 73
!!!OTL@@DA: Nu er os Gud miſkundelig
**kern	**fb	**kern	**kern	**kern	**kern	**kern	**kern	**kern
*part6	*part6	*part6	*part5	*part5	*part4	*part3	*part2	*part1
*staff8	*	*staff7	*staff6	*staff5	*staff4	*staff3	*staff2	*staff1
*clefF4	*	*clefC1	*clefF4	*clefC1	*clefF4	*clefC4	*clefC3	*clefC1
*mclefF4	*	*mclefG2	*mclefF4	*mclefG2	*mclefF4	*mclefGv2	*mclefG2	*mclefG2
*k[]	*	*k[]	*k[]	*k[]	*k[]	*k[]	*k[]	*k[]
*M4/4	*	*M4/4	*M4/4	*M4/4	*M4/4	*M4/4	*M4/4	*M4/4
*met(c)	*	*met(c)	*met(c)	*met(c)	*met(c)	*met(c)	*met(c)	*met(c)
*MM180	*	*MM180	*MM180	*MM180	*MM180	*MM180	*MM180	*MM180
*	*above	*	*	*	*	*	*	*
*	*	*	*	*^	*	*	*	*
*	*	*	*	*	*^	*	*	*	*
=1	=1	=1	=1	=1	=1	=1	=1	=1	=1	=1
2E	#	2b	2E	2b	2e	2g#X\	2E	2G#X	2e	2b
=2	=2	=2	=2	=2	=2	=2	=2	=2	=2	=2
2AA	.	2cc	2AA	2cc	2.e	2a\	2AA	2A	[2e	2cc
2E	8 #	2b	2E	2b	.	2g#X\	2E	2G#X	(4e]	2b
.	7	.	.	.	4d	.	.	.	4d)	.
=3	=3	=3	=3	=3	=3	=3	=3	=3	=3	=3
4F	.	2a	2F	2a	2c	2a\	4F	2A	2c	2a
4E	.	.	.	.	.	.	4E	.	.	.
2D	6	2b	4D	2b	2d	2f\	2D	2d	2f	2b
.	.	.	4d	.	.	.	.	.	.	.
*	*	*	*	*	*v	*v	*	*	*	*
=4	=4	=4	=4	=4	=4	=4	=4	=4	=4
*	*	*	*^	*	*	*	*	*	*
2GG#X	5	2dd	2G#X	2B	2dd	1e	2GG#X	2B	2e	2dd
2AA	.	2cc	2A	2A	2cc	.	2AA	2A	2e	2cc
=5	=5	=5	=5	=5	=5	=5	=5	=5	=5	=5
*	*	*	*	*	*	*^	*	*	*	*
2E	#	2b	2E	2G#X	2b	2ryy	2e\	2E	2G#X	2e	2b
*	*	*	*v	*v	*	*	*	*	*	*	*
2BB	#6\	2dd	2BB	2dd	2d	2g#X\	2BB	2d	2g#X	2dd
=6	=6	=6	=6	=6	=6	=6	=6	=6	=6	=6
2AA	.	2cc	2AA	2cc	2e	2a\	2AA	2e	2a	2cc
2E	#	2b	2E	2b	2e	2g#X\	2E	2e	2g#X	2b
=7	=7	=7	=7	=7	=7	=7	=7	=7	=7	=7
2AA	.	2cc	2AA	2cc	2e	2a\	2AA	2e	2a	2cc
*	*	*	*^	*	*	*	*	*	*	*
2D	.	2a	2D	2A	2a	2ryy	2f\	2D	2d	2f	2a
*	*	*	*	*	*	*v	*v	*	*	*	*
=8	=8	=8	=8	=8	=8	=8	=8	=8	=8	=8
2C#X	5	(2g	2C#X	1A	2g	2.e	(2C#X	1A	(2.e	(2g
2D	9	2f)	2D	.	2f	.	2D)	.	.	2f)
.	8	.	.	.	.	8dL	.	.	8dL	.
.	7	.	.	.	.	8cniJ	.	.	8cJ)	.
=9	=9	=9	=9	=9	=9	=9	=9	=9	=9	=9
2E	#	2e	2E	2G#X	2e	2B	2E	2G#X	2B	2e
*	*	*	*v	*v	*	*	*	*	*	*
=10:|!	=10:|!	=10:|!	=10:|!	=10:|!	=10:|!	=10:|!	=10:|!	=10:|!	=10:|!
*	*	*	*	*	*^	*	*	*	*
2E	5 n	2g	2E	2gni	4B	[2e\	2E	(4B	2e	2g
.	6	.	.	.	[4c	.	.	4c)	.	.
=11	=11	=11	=11	=11	=11	=11	=11	=11	=11	=11
4AA	6 5	2f	4AA	2f	4c]	4e\]	(4AA	(4c	(4e	2f
4BB	5	.	4BB	.	2.G	2d\	4BB)	4G)	2d)	.
2C	9	2e	2C	2e	.	.	2C	2G	.	2e
.	8	.	.	.	.	4c\	.	.	4c	.
=12	=12	=12	=12	=12	=12	=12	=12	=12	=12	=12
*	*	*	*	*	*	*	*^	*	*	*
2FF	.	2f	2FF	2f	2A	2c\	2F	2FF	2A	2c	2f
*	*	*	*^	*	*	*	*	*	*	*	*
2GG	8	2d	2GG	4G	2d	4ryy	2B\	2G	2GG	(4G	2B	2d
.	7	.	.	4F	.	4ryy	.	.	.	4F)	.	.
=13	=13	=13	=13	=13	=13	=13	=13	=13	=13	=13	=13	=13
4AA	5_ 3_	2c	4AA	2E	2c	4ryy	2.c\	(4A	4AA	2E	[2c	2c
4GG	.	.	4GG	.	.	4ryy	.	4G)	4GG	.	.	.
*	*	*	*v	*v	*	*	*	*	*	*	*	*
4FF	6 5	2d	4FF	2d	4A	.	(4F	4FF	(4A	(4c]	2d
4GG	.	.	4GG	.	4G	4B\	4G)	4GG	4G)	4B)	.
=14	=14	=14	=14	=14	=14	=14	=14	=14	=14	=14	=14
2CC	.	2e	2CC	2e	2G	2c\	2C	2CC	2G	2c	2e
*	*	*	*	*	*	*	*v	*v	*	*	*
2E	#	2b	2E	2b	2e	2g#X\	2E	2e	2g#X	2b
=15	=15	=15	=15	=15	=15	=15	=15	=15	=15	=15
2A	.	2cc	2A	2cc	2e	2a\	2A	2e	2a	2cc
4d	5_ 3_	2a	4d	2a	2d	[2f\	4d	2d	[2f	2a
4c	.	.	4c	.	.	.	4c	.	.	.
=16	=16	=16	=16	=16	=16	=16	=16	=16	=16	=16
2B	5	2g	2B	2g	2d	2f\]	2B	2d	2f]	2g
4c	6_	2a	4c	2a	2c	2e\	4c	2e	2e	2a
4B	.	.	4B	.	.	.	4B	.	.	.
=17	=17	=17	=17	=17	=17	=17	=17	=17	=17	=17
2A	.	1cc	2A	1cc	2e	1a\	(2A	(2e	1a	1cc
2D#X	7 5	.	2D#X	.	2f#X	.	2D#X)	2f#X)	.	.
=18	=18	=18	=18	=18	=18	=18	=18	=18	=18	=18
2E	#	2b	2E	2b	2e	2g#X\	2E	2e	2g#X	2b
2C	.	2ee	2C	2ee	2gn	2cc\	2C	2e	2gn	2ee
=19	=19	=19	=19	=19	=19	=19	=19	=19	=19	=19
2D	#	2dd	2D	2dd	2f#X	2a\	2D	2A	2f#X	2dd
*	*	*	*^	*	*	*	*	*	*	*
2G	.	2b	2Gni	2d	2b	2ryy	2g\	2G	2G	2d	2b
*	*	*	*	*	*	*v	*v	*	*	*	*
=20	=20	=20	=20	=20	=20	=20	=20	=20	=20	=20
2F	6	2dd	2Fni	2d	2dd	2a	2F	2A	2d	2dd
2F	.	2a	2F	2d	2a	2fni	2F	2A	2d	2a
=21	=21	=21	=21	=21	=21	=21	=21	=21	=21	=21
2C#X	5	2g	2C#X	1A	2g	2e	2C#X	2A	2e	2g
2D	.	2f	2D	.	2f	2d	2D	2A	2d	2f
=22	=22	=22	=22	=22	=22	=22	=22	=22	=22	=22
*	*	*	*	*	*	*^	*	*	*	*
2AA	#	2e	2AA	2A	2e	2ryy	2c#X\	2AA	2A	2c#X	2e
*	*	*	*v	*v	*	*	*	*^	*	*	*
2GG	5 -	2g	2GG	2g	2B-X	4d\	2G	2GG	2B-X	(4d	2g
.	6	.	.	.	.	4e\	.	.	.	4e)	.
=23	=23	=23	=23	=23	=23	=23	=23	=23	=23	=23	=23
2FF	.	2a	2FF	2a	2cni	2f\	2F	2FF	2c	2f	2a
*	*	*	*	*	*	*	*v	*v	*	*	*
2C	.	2g	2Cni	2g	2c	2e\	2C	2c	2e	2g
=24	=24	=24	=24	=24	=24	=24	=24	=24	=24	=24
2AA	.	2cc	2AA	2cc	2c	2e\	2AA	2c	2e	2cc
*	*	*	*^	*	*	*	*	*	*	*
2F	6	2dd	2F	[2A	2dd	2ryy	2f\	2F	[2A	2d	2dd
*	*	*	*	*	*	*v	*v	*	*	*	*
=25	=25	=25	=25	=25	=25	=25	=25	=25	=25	=25
2D	6 5	1b	2D	2A]	1b	2f	(2D	(2A]	(2f	1b
2E	#	.	2E	2G#X	.	2e	2E)	2G#X)	2e)	.
=26	=26	=26	=26	=26	=26	=26	=26	=26	=26	=26
*	*	*	*	*	*	*^	*	*	*	*
2AA	.	2a	2AA	2A	2a	2ryy	2e/	2AA	2A	2c	2a
*	*	*	*v	*v	*	*	*	*	*	*	*
2AA	.	2cc	2AA	2cc	2e	[2a\	2AA	2e	[2a	2cc
=27	=27	=27	=27	=27	=27	=27	=27	=27	=27	=27
2E	4	2b	2E	2b	2e	4a\]	2E	2e	(4a]	2b
.	3	.	.	.	.	2g\	.	.	2g)	.
2F	9	2a	2F	2a	2c	.	2F	2c	.	2a
.	8	.	.	.	.	[4f\	.	.	[4f	.
=28	=28	=28	=28	=28	=28	=28	=28	=28	=28	=28
2C	4	2g	2C	2g	2c	4f\]	2C	2c	(4f]	2g
.	3	.	.	.	.	4e\	.	.	4e)	.
*	*	*	*^	*	*	*	*	*	*	*
4F	6_	2d	4F	2A	2d	4ryy	2d\	(4F	2A	2d	2d
4E	.	.	4E	.	.	4ryy	.	4E)	.	.	.
*	*	*	*	*	*	*v	*v	*	*	*	*
=29	=29	=29	=29	=29	=29	=29	=29	=29	=29	=29
1D	8_ 5	1f	1D	2A	1f	2.d	1D	(2A	(2.d	1f
.	6_	.	.	4B	.	.	.	4B	.	.
.	7 5	.	.	4A	.	4c	.	4A)	4c)	.
=30	=30	=30	=30	=30	=30	=30	=30	=30	=30	=30
2E	#	2e	2E	2G#X	2e	2B	2E	2G#X	2B	2e
*	*	*	*v	*v	*	*	*	*	*	*
*	*	*	*	*v	*v	*	*	*	*
==	==	==	==	==	==	==	==	==
*-	*-	*-	*-	*-	*-	*-	*-	*-
!!!system-decoration: {(s1,s2,s3,s4)}{(s5,s6)}{(s7,s8)}
!!!RDF**kern: i = editorial accidental
!!!RDF**kern: > = above
!!!RDF**kern: < = below
!!!AGN: chorale
!!!EED: Derek Remeš
!!!EED2: Victor Phan
!!!END: 2023/11/28
!!!ENC: Wolfgang Drescher
!!!EEV: 2023/12/10
!!!title: @{ONM}. @{OTL}
!!!verovio: mnumInterval 1